src/assets/filled/Ankr.svg

<svg width="24" height="24" viewBox="0 0 24 24"  xmlns="http://www.w3.org/2000/svg">
<path d="M20.8899 10.5303C20.4799 10.5303 20.1399 10.1903 20.1399 9.78032V6.91032L11.9999 2.84031L3.85986 6.91032V9.78032C3.85986 10.1903 3.51986 10.5303 3.10986 10.5303C2.69986 10.5303 2.35986 10.1903 2.35986 9.78032V6.45031C2.35986 6.17031 2.51991 5.91032 2.77991 5.78031L11.6699 1.34031C11.8799 1.23031 12.1299 1.23031 12.3399 1.34031L21.2299 5.78031C21.4799 5.91032 21.6499 6.17031 21.6499 6.45031V9.78032C21.6399 10.1903 21.2999 10.5303 20.8899 10.5303Z" />
<path d="M11.9999 22.7505C11.8799 22.7505 11.7699 22.7205 11.6699 22.6705L2.77991 18.2305C2.52991 18.1005 2.35986 17.8405 2.35986 17.5605V14.2305C2.35986 13.8205 2.69986 13.4805 3.10986 13.4805C3.51986 13.4805 3.85986 13.8205 3.85986 14.2305V17.1005L11.9999 21.1705L20.1399 17.1005V14.2305C20.1399 13.8205 20.4799 13.4805 20.8899 13.4805C21.2999 13.4805 21.6399 13.8205 21.6399 14.2305V17.5605C21.6399 17.8405 21.4798 18.1005 21.2198 18.2305L12.3299 22.6705C12.2299 22.7205 12.1199 22.7505 11.9999 22.7505Z" />
<path d="M16.4401 12.0005C16.4401 9.55055 14.4501 7.56055 12.0001 7.56055C9.55006 7.56055 7.56006 9.55055 7.56006 12.0005C7.56006 14.2005 9.17008 16.0205 11.2701 16.3705C11.2701 16.4005 11.2601 16.4206 11.2601 16.4406V22.0005C11.2601 22.4105 11.6001 22.7505 12.0101 22.7505C12.4201 22.7505 12.7601 22.4105 12.7601 22.0005V16.4406C12.7601 16.4106 12.7501 16.3905 12.7501 16.3705C14.8401 16.0205 16.4401 14.2005 16.4401 12.0005Z" />
</svg>

<?xml version="1.0" encoding="UTF-8"?>
<svg width="24" height="24" viewBox="0 0 24 24" xmlns="http://www.w3.org/2000/svg">
 <path d="m20.89 10.53c-0.41 0-0.75-0.34-0.75-0.74998v-2.87l-8.14-4.07-8.14 4.07v2.87c0 0.40998-0.34 0.74998-0.75 0.74998s-0.75-0.34-0.75-0.74998v-3.33c0-0.28 0.16005-0.53999 0.42005-0.67l8.89-4.44c0.21-0.11 0.46-0.11 0.67 0l8.89 4.44c0.25 0.13001 0.42 0.39 0.42 0.67v3.33c-0.01 0.40998-0.35 0.74998-0.76 0.74998z"/>
 <path d="m12 22.75c-0.12 0-0.23-0.03-0.33-0.08l-8.89-4.44c-0.25-0.13-0.42005-0.39-0.42005-0.67v-3.33c0-0.41 0.34-0.75 0.75-0.75s0.75 0.34 0.75 0.75v2.87l8.14 4.07 8.14-4.07v-2.87c0-0.41 0.34-0.75 0.75-0.75s0.75 0.34 0.75 0.75v3.33c0 0.28-0.1601 0.54-0.4201 0.67l-8.8899 4.44c-0.1 0.05-0.21 0.08-0.33 0.08z"/>
 <path d="m16.44 12c0-2.45-1.99-4.44-4.44-4.44-2.45 0-4.44 1.99-4.44 4.44 0 2.2 1.61 4.02 3.71 4.37 0 0.03-0.01 0.0501-0.01 0.0701v5.5599c0 0.41 0.34 0.75 0.75 0.75s0.75-0.34 0.75-0.75v-5.5599c0-0.03-0.01-0.0501-0.01-0.0701 2.09-0.35 3.69-2.17 3.69-4.37z"/>
</svg>
